src/pages/screens/Techs/images/frontend/Redux.svg

<svg width="32" height="31" viewBox="0 0 32 31" fill="none" xmlns="http://www.w3.org/2000/svg">
<g clip-path="url(#clip0_2_455)">
<path d="M22.1726 21.5644C23.3535 21.4402 24.2494 20.4055 24.2086 19.1637C24.168 17.9221 23.1499 16.9287 21.9282 16.9287H21.8469C20.5844 16.9701 19.6071 18.0462 19.6479 19.3293C19.6886 19.9502 19.9329 20.4882 20.2994 20.8607C18.9149 23.6339 16.7974 25.662 13.6211 27.359C11.4629 28.518 9.22325 28.9319 6.98362 28.6422C5.15112 28.3938 3.72587 27.5661 2.82987 26.2001C1.52687 24.172 1.40475 21.9782 2.50425 19.7846C3.278 18.2117 4.4995 17.0528 5.27325 16.4733C5.11037 15.9353 4.866 15.0247 4.74387 14.3625C-1.16075 18.7085 -0.549877 24.5859 1.24187 27.359C2.58562 29.4287 5.314 30.7117 8.32737 30.7117C9.14175 30.7117 9.95612 30.6289 10.7706 30.4221C15.983 29.3872 19.933 26.2415 22.1726 21.5644ZM29.3396 16.432C26.2448 12.7482 21.684 10.7202 16.4716 10.7202H15.8201C15.4536 9.97514 14.6799 9.47838 13.8247 9.47838H13.7432C12.481 9.51979 11.5037 10.5959 11.5444 11.8791C11.5851 13.1207 12.6031 14.1141 13.8247 14.1141H13.9061C14.802 14.0727 15.5757 13.4933 15.9015 12.7068H16.6345C19.7294 12.7068 22.6613 13.6174 25.3083 15.3972C27.3443 16.7631 28.8103 18.543 29.6246 20.6952C30.3169 22.4336 30.2761 24.1306 29.5431 25.5793C28.403 27.773 26.4891 28.9733 23.9644 28.9733C22.3355 28.9733 20.7881 28.4765 19.9736 28.104C19.5258 28.518 18.7113 29.1801 18.1411 29.5942C19.8923 30.4219 21.684 30.8773 23.3943 30.8773C27.3035 30.8773 30.1948 28.6835 31.2943 26.4899C32.4751 24.0892 32.3936 19.9502 29.3396 16.432ZM8.65312 22.2679C8.69387 23.5097 9.71187 24.503 10.9335 24.503H11.015C12.2774 24.4617 13.2546 23.3854 13.2139 22.1024C13.1732 20.8606 12.1551 19.8673 10.9335 19.8673H10.8521C10.7706 19.8673 10.6484 19.8673 10.5671 19.9086C8.8975 17.0941 8.20525 14.0313 8.44962 10.72C8.61237 8.2366 9.42687 6.08426 10.8521 4.30443C12.033 2.77298 14.3134 2.02796 15.8609 1.98667C20.1772 1.90383 22.0096 7.36733 22.1319 9.56109C22.6612 9.68521 23.5571 9.97501 24.168 10.182C23.6793 3.47683 19.6071 0 15.698 0C12.033 0 8.65312 2.69039 7.30925 6.66386C5.43612 11.9618 6.65775 17.0528 8.93812 21.0677C8.73462 21.3573 8.61237 21.8127 8.65312 22.268V22.2679Z" fill="#764ABC"/>
</g>
<defs>
<clipPath id="clip0_2_455">
<rect width="32" height="31" fill="white"/>
</clipPath>
</defs>
</svg>

<svg width="32" height="31" fill="none" xmlns="http://www.w3.org/2000/svg"><g clip-path="url(#a)"><path d="M22.173 21.564c1.18-.124 2.076-1.159 2.036-2.4-.041-1.242-1.06-2.235-2.28-2.235h-.082c-1.263.041-2.24 1.117-2.2 2.4.042.621.286 1.16.652 1.532-1.384 2.773-3.502 4.801-6.678 6.498-2.158 1.159-4.398 1.573-6.637 1.283-1.833-.248-3.258-1.076-4.154-2.442-1.303-2.028-1.425-4.222-.326-6.415.774-1.573 1.996-2.732 2.77-3.312a22.616 22.616 0 0 1-.53-2.11C-1.161 18.709-.55 24.586 1.242 27.358c1.344 2.07 4.072 3.353 7.085 3.353.815 0 1.63-.083 2.444-.29 5.212-1.035 9.162-4.18 11.402-8.858zm7.167-5.132c-3.095-3.684-7.656-5.712-12.868-5.712h-.652a2.234 2.234 0 0 0-1.995-1.242h-.082c-1.262.042-2.24 1.118-2.199 2.401.041 1.242 1.06 2.235 2.28 2.235h.082a2.295 2.295 0 0 0 1.995-1.407h.733c3.095 0 6.027.91 8.674 2.69 2.036 1.366 3.502 3.146 4.317 5.298.692 1.739.651 3.436-.082 4.884-1.14 2.194-3.054 3.394-5.579 3.394-1.628 0-3.176-.496-3.99-.869a24.097 24.097 0 0 1-1.833 1.49c1.751.828 3.543 1.283 5.253 1.283 3.91 0 6.8-2.194 7.9-4.387 1.181-2.4 1.1-6.54-1.954-10.058zM8.653 22.268c.04 1.242 1.059 2.235 2.28 2.235h.082c1.262-.041 2.24-1.118 2.199-2.4-.04-1.242-1.059-2.236-2.28-2.236h-.082c-.081 0-.204 0-.285.042-1.67-2.815-2.362-5.878-2.117-9.189.162-2.483.977-4.636 2.402-6.416 1.181-1.531 3.461-2.276 5.009-2.317 4.316-.083 6.149 5.38 6.27 7.574.53.124 1.426.414 2.037.621C23.679 3.477 19.608 0 15.698 0c-3.665 0-7.045 2.69-8.389 6.664-1.873 5.298-.651 10.389 1.63 14.404-.204.29-.327.745-.286 1.2z" fill="#764ABC"/></g><defs><clipPath id="a"><path fill="#fff" d="M0 0h32v31H0z"/></clipPath></defs></svg>
